X: 1
T: Caves Of Kiltanon, The
M: 6/8
L: 1/8
R: jig
K: Gdor
G2 F |: DGA B2 c | dgf  dcA | BDd  cBA | BDG FDC | 
DGA B2 c | dgf dcA | BDd cBA |1 BDF G2 F :|2 BDF G2 D :|
Gga bag | afd cBA | BDd cBA | BAG AFD |
Gga bag | afd cBc | dba gfd | gdf ~g3 |
dga bag | afd cBA | BDd cBA | BAG AFD |
BdB ~c3 | dba gfd | BDd cBA | BDF G2 A |
BGd BGd | AFc AFA | BGd BGB | daf ~g3 |
bag agf | gfd cBA | BDd cBA | BDF G2 A |
BGd BGd | AFc AFA | BGd BGB | daf ~g3 |
bag agf | dgf dcA | BDd cBA | BDF G3 ||
